!!!OTL: Da qi laozi Ying xinnian
!!!ARE: Asia, China,ÿJiangsu, Peixian
!! III, 502
!!!SCT: C1587
!!!YEM: Copyright 1995, estate of Helmut Schaffrath.
**kern
*ICvox
*Ivox
!! Mixed meters:  2/4; 3/4
*M3/4
*k[]
*C:
{8g
8ee
8dd
16dd
16ee
=1
8cc
16cc
16dd
8a
8g
=2
8a
8dd
16cc
16dd
16cc
16a
=3
8.g
16e
4g}
=4
{8dd
16cc
16dd
8ee
16gg
16ee
=5
8dd
8dd
8dd
16cc
16a
16dd
16cc
8a
=6
*M2/4
8.g
16e
4g}
=7
{8a
8dd
4cc
=8
8a
8dd
4cc
=9
16e
16g
16e
16g
16a
16g
16a
16cc
=10
8g
16g
16e
4g}
=11
{8.ee
16cc
8dd
8cc
=12
8cc
4e
16d
16e
=13
16g
16e
16e
16d
4c}
=14
{8.g
16e
8.ee
16dd
=15
8cc
8a
4g
=16
8.ee
16cc
8dd
8cc
=17
8cc
4e
16d
16e
=18
16g
16e
16e
16d
4c}
==
!!!AGN: Wuge, Lianhualao
!!!AMT: irregular
!!!AIN: vox
!!!EED: Helmut Schaffrath
!!!EEV: 1.0
*-
